round/svg/flare.svg

<svg xmlns="http://www.w3.org/2000/svg" width="24" height="24"><path fill="none" d="M0 0h24v24H0V0z"/><g fill="currentColor"><path d="M6 11H2c-.55 0-1 .45-1 1s.45 1 1 1h4c.55 0 1-.45 1-1s-.45-1-1-1zm2.47-3.94l-.72-.72a.996.996 0 1 0-1.41 1.41l.71.71c.39.39 1.02.39 1.41 0 .39-.38.39-1.02.01-1.4zM12 1c-.56 0-1 .45-1 1v4c0 .55.45 1 1 1s1-.45 1-1V2c0-.55-.45-1-1-1zm5.66 5.35a.996.996 0 0 0-1.41 0l-.71.71a.996.996 0 1 0 1.41 1.41l.71-.71c.38-.39.38-1.03 0-1.41zM17 12c0 .56.45 1 1 1h4c.55 0 1-.45 1-1s-.45-1-1-1h-4c-.55 0-1 .45-1 1zm-5-3c-1.66 0-3 1.34-3 3s1.34 3 3 3 3-1.34 3-3-1.34-3-3-3zm3.53 7.94l.71.71a.996.996 0 1 0 1.41-1.41l-.71-.71a.996.996 0 0 0-1.41 0c-.38.39-.38 1.03 0 1.41zm-9.19.71c.39.39 1.02.39 1.41 0l.71-.71a.996.996 0 1 0-1.41-1.41l-.71.71c-.38.39-.38 1.03 0 1.41zM12 23c.56 0 1-.45 1-1v-4c0-.55-.45-1-1-1s-1 .45-1 1v4c0 .55.45 1 1 1z"/></g></svg>

<?xml version="1.0" encoding="utf-8"?>
<!-- Generator: Adobe Illustrator 19.1.0, SVG Export Plug-In . SVG Version: 6.00 Build 0)  -->
<svg version="1.1" xmlns="http://www.w3.org/2000/svg" xmlns:xlink="http://www.w3.org/1999/xlink" x="0px" y="0px" width="24px"
	 height="24px" viewBox="0 0 24 24" enable-background="new 0 0 24 24" xml:space="preserve">
<g id="Bounding_Boxes">
	<g id="ui_x5F_spec_x5F_header_copy_3">
	</g>
	<path fill="none" d="M0,0h24v24H0V0z"/>
</g>
<g id="Rounded" fill="currentColor">
	<g id="ui_x5F_spec_x5F_header_copy_7">
	</g>
	<path d="M6,11H2c-0.55,0-1,0.45-1,1V12c0,0.55,0.45,1,1,1H6c0.55,0,1-0.45,1-1V12C7,11.45,6.55,11,6,11z M8.47,7.06L7.75,6.34
		c-0.39-0.39-1.02-0.39-1.41,0l0,0c-0.39,0.39-0.39,1.02,0,1.41l0.71,0.71c0.39,0.39,1.02,0.39,1.41,0l0,0
		C8.85,8.08,8.85,7.44,8.47,7.06z M12,1L12,1c-0.56,0-1,0.45-1,1V6c0,0.55,0.45,1,1,1H12c0.55,0,1-0.45,1-1V2C13,1.45,12.55,1,12,1z
		 M17.66,6.35L17.66,6.35c-0.39-0.39-1.02-0.39-1.41,0l-0.71,0.71c-0.39,0.39-0.39,1.02,0,1.41l0,0c0.39,0.39,1.02,0.39,1.41,0
		l0.71-0.71C18.04,7.37,18.04,6.73,17.66,6.35z M17,12L17,12c0,0.56,0.45,1,1,1H22c0.55,0,1-0.45,1-1V12c0-0.55-0.45-1-1-1H18
		C17.45,11,17,11.45,17,12z M12,9c-1.66,0-3,1.34-3,3s1.34,3,3,3s3-1.34,3-3S13.66,9,12,9z M15.53,16.94l0.71,0.71
		c0.39,0.39,1.02,0.39,1.41,0l0,0c0.39-0.39,0.39-1.02,0-1.41l-0.71-0.71c-0.39-0.39-1.02-0.39-1.41,0l0,0
		C15.15,15.92,15.15,16.56,15.53,16.94z M6.34,17.65L6.34,17.65c0.39,0.39,1.02,0.39,1.41,0l0.71-0.71c0.39-0.39,0.39-1.02,0-1.41
		l0,0c-0.39-0.39-1.02-0.39-1.41,0l-0.71,0.71C5.96,16.63,5.96,17.27,6.34,17.65z M12,23L12,23c0.56,0,1-0.45,1-1V18
		c0-0.55-0.45-1-1-1H12c-0.55,0-1,0.45-1,1V22C11,22.55,11.45,23,12,23z"/>
</g>
</svg>
